icons/unverified-16.svg

<svg width="16" height="16" viewBox="0 0 16 16" xmlns="http://www.w3.org/2000/svg">
  <path fill-rule="evenodd" clip-rule="evenodd" d="M6.41493 0.51936C7.3582 -0.17312 8.64181 -0.17312 9.58507 0.51936L10.5126 1.2003C10.6657 1.31269 10.8437 1.38642 11.0314 1.4152L12.1688 1.58958C13.3254 1.76691 14.2331 2.67456 14.4104 3.8312L14.5848 4.96858C14.6136 5.1563 14.6873 5.33429 14.7997 5.48738L15.4806 6.41493C16.1731 7.3582 16.1731 8.6418 15.4806 9.58507L14.7997 10.5126C14.6873 10.6657 14.6136 10.8437 14.5848 11.0314L14.4104 12.1688C14.2331 13.3254 13.3254 14.2331 12.1688 14.4104L11.0314 14.5848C10.8437 14.6136 10.6657 14.6873 10.5126 14.7997L9.58507 15.4806C8.6418 16.1731 7.3582 16.1731 6.41493 15.4806L5.48738 14.7997C5.33429 14.6873 5.1563 14.6136 4.96858 14.5848L3.8312 14.4104C2.67456 14.2331 1.76691 13.3254 1.58958 12.1688L1.4152 11.0314C1.38642 10.8437 1.31269 10.6657 1.2003 10.5126L0.51936 9.58507C-0.17312 8.6418 -0.17312 7.3582 0.51936 6.41493L1.2003 5.48738C1.31269 5.33429 1.38642 5.1563 1.4152 4.96858L1.58958 3.8312C1.76691 2.67456 2.67456 1.76691 3.8312 1.58958L4.96858 1.4152C5.1563 1.38642 5.33429 1.31269 5.48738 1.2003L6.41493 0.51936ZM8.6974 1.72851C8.28238 1.42383 7.71762 1.42383 7.3026 1.72851L6.37505 2.40945C6.0271 2.66489 5.62256 2.83246 5.19589 2.89787L4.05852 3.07225C3.54962 3.15027 3.15027 3.54962 3.07225 4.05852L2.89787 5.19589C2.83246 5.62256 2.66489 6.0271 2.40945 6.37505L1.72851 7.3026C1.42383 7.71762 1.42383 8.28238 1.72851 8.6974L2.40945 9.62494C2.66489 9.9729 2.83246 10.3774 2.89787 10.8041L3.07225 11.9415C3.15027 12.4504 3.54962 12.8497 4.05852 12.9277L5.19589 13.1021C5.62256 13.1675 6.0271 13.3351 6.37506 13.5906L7.3026 14.2715C7.71762 14.5762 8.28238 14.5762 8.6974 14.2715L9.62494 13.5906C9.9729 13.3351 10.3774 13.1675 10.8041 13.1021L11.9415 12.9277C12.4504 12.8497 12.8497 12.4504 12.9277 11.9415L13.1021 10.8041C13.1675 10.3774 13.3351 9.9729 13.5906 9.62494L14.2715 8.6974C14.5762 8.28238 14.5762 7.71762 14.2715 7.3026L13.5906 6.37506C13.3351 6.0271 13.1675 5.62256 13.1021 5.19589L12.9277 4.05852C12.8497 3.54962 12.4504 3.15027 11.9415 3.07225L10.8041 2.89787C10.3774 2.83246 9.9729 2.66489 9.62494 2.40945L8.6974 1.72851ZM9 11C9 11.5523 8.55229 12 8 12C7.44772 12 7 11.5523 7 11C7 10.4477 7.44772 10 8 10C8.55229 10 9 10.4477 9 11ZM6.92086 6.08541C7.00138 5.92438 7.11037 5.78617 7.25982 5.68654C7.40457 5.59004 7.63128 5.5 8.00004 5.5C8.27979 5.5 8.55295 5.58656 8.73754 5.725C8.90211 5.84842 9.00004 6.01009 9.00004 6.25C9.00004 6.42662 8.95924 6.51381 8.92288 6.56835C8.87752 6.63639 8.79929 6.71162 8.6465 6.81349C8.57011 6.86441 8.48792 6.9139 8.38758 6.97411L8.38145 6.97779L8.38143 6.9778C8.28774 7.03402 8.17709 7.10041 8.06836 7.1729C7.84613 7.32107 7.58062 7.52712 7.37598 7.83412C7.14624 8.17878 7.2394 8.64442 7.58406 8.87417C7.92872 9.10391 8.39436 9.01075 8.62411 8.66609C8.66947 8.59803 8.74771 8.52279 8.90048 8.42093C8.97686 8.37001 9.05905 8.32052 9.15938 8.26032L9.16559 8.25659L9.16564 8.25656C9.25931 8.20036 9.36991 8.134 9.47858 8.06154C9.7008 7.91339 9.96631 7.70737 10.171 7.4004C10.3846 7.07994 10.5 6.69838 10.5 6.25C10.5 5.48991 10.1396 4.90158 9.63754 4.525C9.15547 4.16344 8.55363 4 8.00004 4C7.3688 4 6.84551 4.15996 6.42777 4.43846C6.01472 4.71383 5.74871 5.07562 5.57922 5.41459C5.39398 5.78507 5.54415 6.23558 5.91463 6.42082C6.28512 6.60606 6.73562 6.45589 6.92086 6.08541Z"/>
</svg>

<svg xmlns="http://www.w3.org/2000/svg" width="16" height="16" viewBox="0 0 16 16"><path fill-rule="evenodd" d="M6.415.52a2.678 2.678 0 013.17 0l.928.68c.153.113.33.186.518.215l1.138.175a2.678 2.678 0 012.241 2.24l.175 1.138c.029.187.102.365.215.518l.68.928a2.678 2.678 0 010 3.17l-.68.928a1.179 1.179 0 00-.215.518l-.175 1.138a2.678 2.678 0 01-2.241 2.241l-1.138.175a1.179 1.179 0 00-.518.215l-.928.68a2.678 2.678 0 01-3.17 0l-.928-.68a1.179 1.179 0 00-.518-.215L3.83 14.41a2.678 2.678 0 01-2.24-2.24l-.175-1.138a1.179 1.179 0 00-.215-.518l-.68-.928a2.678 2.678 0 010-3.17l.68-.928a1.17 1.17 0 00.215-.518l.175-1.14a2.678 2.678 0 012.24-2.24l1.138-.175c.187-.029.365-.102.518-.215l.928-.68zm2.282 1.209a1.178 1.178 0 00-1.394 0l-.928.68a2.678 2.678 0 01-1.18.489l-1.136.174a1.178 1.178 0 00-.987.987l-.174 1.137a2.678 2.678 0 01-.489 1.18l-.68.927c-.305.415-.305.98 0 1.394l.68.928c.256.348.423.752.489 1.18l.174 1.136c.078.51.478.909.987.987l1.137.174c.427.066.831.233 1.18.489l.927.68c.415.305.98.305 1.394 0l.928-.68a2.678 2.678 0 011.18-.489l1.136-.174c.51-.078.909-.478.987-.987l.174-1.137c.066-.427.233-.831.489-1.18l.68-.927c.305-.415.305-.98 0-1.394l-.68-.928a2.678 2.678 0 01-.489-1.18l-.174-1.136a1.178 1.178 0 00-.987-.987l-1.137-.174a2.678 2.678 0 01-1.18-.489l-.927-.68zM9 11a1 1 0 11-2 0 1 1 0 012 0zM6.92 6.085c.081-.16.19-.299.34-.398.145-.097.371-.187.74-.187.28 0 .553.087.738.225A.613.613 0 019 6.25c0 .177-.04.264-.077.318a.956.956 0 01-.277.245c-.076.051-.158.1-.258.161l-.007.004c-.093.056-.204.122-.313.195a2.416 2.416 0 00-.692.661.75.75 0 001.248.832.956.956 0 01.276-.245 6.3 6.3 0 01.26-.16l.006-.004c.093-.057.204-.123.313-.195.222-.149.487-.355.692-.662.214-.32.329-.702.329-1.15 0-.76-.36-1.348-.862-1.725A2.76 2.76 0 008 4c-.631 0-1.154.16-1.572.438-.413.276-.68.638-.849.977a.75.75 0 001.342.67z"/></svg>
